X: 30438
T: Old Town
R: reel
M: 4/4
K: Gmajor
|D G G2 F/ G/ A/ B/ c/ z z/|B G G B A/ G/ F/ G/ A/ z z/|
D G G2 F/ G/ A/ B/ c/ z z/|B/ A/ G A/ G/ F G2 G/ z z/:|
d B/ c/ d B c/ B/ A/ B/ c A|B G G B A/ G/ F/ G/ A z|
d B/ c/ d B c/ B/ A/ B/ c A|B/ A/ G A/ G/ F G2 G z:|

